X:1
T:Title
%%score { ( 1 3 5 ) | ( 2 4 ) }
L:1/8
Q:1/4=104
M:4/4
K:Eb
V:1 treble nm="Grand Piano"
V:3 treble 
V:5 treble 
V:2 bass 
V:4 bass 
V:1
 G3 G [FA]2 [FA]2 | [EG]2 [CF]2 E2 z A, | B3 B c2 B2 | A2 z2 z4 | [EG]3 [EG] [FA]2 [FA]2 | %5
w: Richard~S.~Willis * * *|||||
 [EG]2 [CF]2 E2 z A, | B4 z4 | z2 .G2 z4 | e3 e d2 d2 | z4 B4 | z2 z A G2 eA | %11
w: ||||||
 [CEF]2 .[CEG]2 [B,DF]4 | [B,EG]3 [B,EG] [B,FA]2 [B,FA]2 | [B,EG]2 [A,CF]2 B,3- [A,B,] | B4 z4 | %15
w: ||||
 [G,B,E]2 .[A,DG]2 [G,E]4 |] %16
w: |
V:2
 [E,B,E]3 [E,B,E] [D,B,]2 [D,B,]2 | [E,B,]2 [A,,A,]2 [B,,G,B,]2 .[B,,F,B,]2 | %2
 [G,E]3 [G,B,E] [A,E]2 [G,B,E]2 | .[F,B,E]2 [E,B,E]2 [B,,B,]4 | [E,B,]3 [E,B,] [D,B,]2 [D,B,]2 | %5
 [E,B,]2 [A,,A,]2 [B,,G,B,]2 .[B,,F,B,]2 | G,3 [G,B,_D] [A,C]2 z F | B,,2 B,,2 [E,G,]4 | %8
 [CG]3 [CG] [B,DG]2 [B,DG]2 | [A,EG]2 [A,CF]2 [DF]2[K:bass] B,2 | %10
 [F,CE]2 [F,B,]2 [E,B,E]2 [G,,B,E]2 | A,,2 z F B,,4 | E,3 E, D,2 D,2 | E,2 A,,2 z2 .F,2 | %14
 E2 z [G,B,_D] [A,C]2 z F | B,,2 z F E,4 |] %16
V:3
 x8 | z4 z2 D2 | x8 | z D G2 [DF]4 | x8 | z4 z2 D2 | z2 DB Bc .[A,CA]2 | [G,B,E]2 [A,D]-[A,DF] E4 | %8
 x8 | c2 c2 z2 E2 | A4 z4 | x8 | x8 | z4 [G,E]2 D2 | z2 DB Bc .[A,CA]2 | x8 |] %16
V:4
 x8 | x8 | x8 | x8 | x8 | x8 | E2 z2 z2 A,,2 | x8 | x8 | z4 G,4[K:bass] | x8 | z2 =A,,2 z4 | x8 | %13
 z4 B,,4 | G,4 z2 A,,2 | z2 B,,2 z4 |] %16
V:5
 x8 | x8 | x8 | x8 | x8 | x8 | x8 | x8 | x8 | x8 | z2 D2 z4 | x8 | x8 | x8 | x8 | x8 |] %16

